src/icons/arrow-up-b.svg

<?xml version="1.0" encoding="UTF-8"?>
<svg width="512px" height="512px" viewBox="0 0 512 512" version="1.1" xmlns="http://www.w3.org/2000/svg" xmlns:xlink="http://www.w3.org/1999/xlink">
    <!-- Generator: Sketch 62 (91390) - https://sketch.com -->
    <title>arrow-up-b</title>
    <desc>Created with Sketch.</desc>
    <g id="arrow-up-b" stroke="none" stroke-width="1" fill="none" fill-rule="evenodd">
        <path d="M413.1,320.75 L411.3,318.65 L275.3,162.15 C270.7,156.85 263.8,153.55 256.1,153.55 C248.4,153.55 241.5,156.95 236.9,162.15 L101,318.45 L98.7,321.05 C97,323.55 96,326.55 96,329.65 C96,338.35 103.4,345.45 112.6,345.45 L399.4,345.45 C408.6,345.45 416,338.35 416,329.65 C416,326.45 414.9,323.35 413.1,320.75 L413.1,320.75 Z" id="Path" fill="#000000" fill-rule="nonzero"></path>
    </g>
</svg>

<svg xmlns="http://www.w3.org/2000/svg" width="512" height="512" viewBox="0 0 512 512">
    <path d="M413.1 320.75l-1.8-2.1-136-156.5c-4.6-5.3-11.5-8.6-19.2-8.6-7.7 0-14.6 3.4-19.2 8.6L101 318.45l-2.3 2.6c-1.7 2.5-2.7 5.5-2.7 8.6 0 8.7 7.4 15.8 16.6 15.8h286.8c9.2 0 16.6-7.1 16.6-15.8 0-3.2-1.1-6.3-2.9-8.9z"/>
</svg>
